X:1
T:Title
%%score ( 1 2 ) { 3 | 4 }
L:1/8
Q:1/4=115
M:4/4
K:C
V:1 treble nm="Grand Piano, Unnamed-000"
V:2 treble 
V:3 treble nm="Choir Pad, Christ Arose"
V:4 bass 
V:1
 [EG]4 [EG]2 [FA]2 | [FA]2 [EG]2 [EG]4 | [DG]4 [DF]2 [FA]2 | [FA]4 [EG]4 | [FA]4 [GB]2 [Ac]2 | %5
w: By~Robert~~Lowry,~1874 * *|||||
 [Gc]2 [EG]2 [EG]4 | [EA]4 [DG]2 [C^F]2 | [B,G]8 |[Q:1/4=120] C2 C>C E2 G>G | [Ec]6 [Ec]>[Fd] | %10
w: |||||
 [Ge]2 [Gc]2 [Ad][Ac][GB][FA] | [EG]6 [DB]>[Ec] | [Fd]2 [Fd]2 [Fd][Ec][Fd][Ge] | %13
w: |||
 [Ec]2 [FA]2 [EG]2 [EG]>[EG] | [FA]2 [FA]2 [^FA][Fd][Fd][Ac] | B-[FB] [Ec]2 [Fd]2 G>G | %16
w: |||
 [Ge]6 [Fd]>[Ec] | [Af]6 [Ge]>[Fd] | [Ec]2 [EG]2 [Ge]3 [Fd] | [Ec]8 |] %20
w: ||||
V:2
 x8 | x8 | x8 | x8 | x8 | x8 | x8 | x8 | x8 | x8 | x8 | x8 | x8 | x8 | x8 | .G2 z2 z4 | x8 | x8 | %18
 x8 | x8 |] %20
V:3
 C4 C2 C2 | C2 C2 C4 | B,4 B,2 B,2 | C4 C4 | C4 C2 C2 | C2 C2 C4 | C4[K:bass] B,2 A,2 | G,8 | %8
 C,2 C,>C, E,2 G,>G, | G,2 G,>G, G,2[K:treble] C>C | C2 C2 CCCC | C2 C>C C2[K:bass] G,>G, | %12
 G,2 G,2 G,G,G,G, | C2 C2 C2 C>C | C2 C2 CA,A,D | D2 C2 B,2 z2 | z2 C>C C2 z2 | z2 C>C C2 C>A, | %18
 G,2 C2 C3 B, | C8 |] %20
V:4
 C,4 C,2 C,2 | C,2 C,2 C,4 | G,,4 G,,2 G,,2 | C,4 C,4 | F,4 F,2 F,2 | E,2 C,2 C,4 | C,4 D,2 D,2 | %7
 G,,8 | z8 | C,2 C,>C, C,2 C,>C, | C,2 E,2 F,F,F,F, | C,2 C,>C, C,2 z2 | z8 | A,2 F,2 C,2 C,>C, | %14
 F,2 F,2 D,D,D,D, | G,2 A,2 G,2 z2 | z8 | z2 F,>F, F,2 F,>F, | z2 G,2 G,3 G, | C,8 |] %20

